X:1
T:Partition sans titre
C:Compositeur / Arrangeur
L:1/8
M:4/4
I:linebreak $
K:D
V:1 treble nm="Violon" snm="Vln."
V:1
"D" DFAd f2 df |"A" egec dBAG |"D" FAFA"G" GBGB |"D" FAFA"A" EGFE |"D" DFAd f2 df |"A" egec dBAG | %6
"D" FAFA"G" GBGB |"A" Acec"D" d2 d2 ::"A" Acef gfge |"D" defg"A" a2 a2 | Acef"G" gfgb | %11
"A" afge"D" fdcB |"A" Acef gfge |"D" defg"A" afge |"D" fdec"G" dBAG | FABc"D" d2 d2 :| %16
